X: 20472
T: The CHASE
C:
%R: reel
B: Elias Howe "The Musician's Companion" 1843 p.47 #2
S: http://imslp.org/wiki/The_Musician's_Companion_(Howe,_Elias)
Z: 2015 John Chambers <jc:trillian.mit.edu>
N: The 1st strain's last bar has odd beaming; not fixed.
N: 2nd & 3rd strains' last bars are missing an 8th note; not fixed.
M: C|
L: 1/8
K: D
% - - - - - - - - - - - - - - - - - - - - - - - - -
|:\
D2 F/E/D AFDd | ceAc dfAF |\
GBEG FADF | DEFE C D/D/D D ::\
ECA,G FAFD | CEGE FAdf |
ecAd fdAF | BGEC D/D/D D ::\
A/A/A Ad fafd | A/A/A Ac egec |\
A/A/A Ad fafd | bgec d/d/d d :|
% - - - - - - - - - - - - - - - - - - - - - - - - -

%%sep 1 1 500

